X: 319
T: Paoda Huaxiancheng
L: 1/8
M: 2/4
K: G
e2B e [I:setbarnb 1]| 
d dB2 | 
e g d f | 
e c B A | 
G2D E | 
G2z2 | 
g2f e | 
d Bg2 | 
e c B A | 
G2d2 | 
A d A E | 
G2F E | 
D3E | 
D2z2 | 
d2d2 | 
A B F E | 
D3E | 
D4 |]

@@@ Tune index: 9193
